X:47
T: N' MONTA HATS GREGNET
N: E1043
O: Europa, Mitteleuropa, Deutschland
R: Tanz - Lied, Laendler
M: 3/4
L: 1/8
K: G
D2 | DBB2AG | GFFE
F2 | Fcc2BA | AGGF
G2 | Gdd2cB | BAA^G
A2 | Aed2de | B4

